X:12686
T:Paddy Raftery's
R:Jig
S:(Sharon Shannon)
H:
N:
D:Galway Arts Festival Concert
Z:Adrian Scahill
M:6/8
L:1/8
K:A
EAc EAd|EAc BAF|EAc EAd|cdB AFD|\
EAc EAd|c3 efg|aec B3|ABA A3:||\
e3 fdf|e3 ecd|e3 fga|ABA AFE|\
e3 fdf|e3 efg|aec B3|ABA A3:||


